!!!COM: Beethoven
!!!OTL: 24 Variationen uber Venni Amore von V. Righini
!!!Variation: Variation 12 b
**function	**harm	**kern	**kern
*	*	*clefF4	*clefG2
*	*	*k[b-]	*k[b-]
*M2/4	*M2/4	*M2/4	*M2/4
*d:	*d:	*d:	*d:
=209	=209	=209	=209
*	*	*^	*
2D	2viioD7d	4r	8GL	(8.ggL
.	.	.	(8GJ	.
.	.	.	.	16eeJk
.	.	(4BB-	8EL	[4ccc#)
.	.	.	8GJ	.
=210	=210	=210	=210	=210
4D	4V7	2AA)	8EL	4ccc#]
.	.	.	8GJ	.
4D	4ic	.	8FL	(8.dddL
.	.	.	8DJ)	.
.	.	.	.	16aaJk)
=211	=211	=211	=211	=211
2D	2viioD7d	4r	8GL	(8.ggL
.	.	.	(8GJ	.
.	.	.	.	16eeJk
.	.	(4BB-	8EL	[4ccc#)
.	.	.	8GJ	.
=212	=212	=212	=212	=212
4D	4V7	2AA)	8EL	4ccc#]
.	.	.	8GJ	.
4D	4ic	.	8FL	(8.dddL
.	.	.	[8DJ) [8F	.
.	.	.	.	16eeeJk)
=213	=213	=213	=213	=213
.	.	.	.	(q32dd
.	.	.	.	q32ee
2D	2viioD7/V	4.GG#;	4.BB; 4.D;] 4.F;]	4.fff);
.	.	8r	8r	(8eee
=214	=214	=214	=214	=214
4D	4viioc	8r	8r	8dddL
.	.	(8GG	8E	8ccc#J
8T	8ib	8FFL	8D	8dddL
8P	8iiob	8GGJ 8D)	8E	8bb-J)
=215	=215	=215	=215	=215
4D	4Cc	8AA 8D	8F	8bb-
.	.	8r	8r	4aa
4D	4V7	8AA 8E	8G	.
.	.	8r	8r	([8cc#
=216	=216	=216	=216	=216
2T	2i	8D	8F	8cc#L]
*	*	*v	*v	*
.	.	8r	8ddJ)
.	.	8d	4r
.	.	8r	.
*-	*-	*-	*-
